src/assets/icons/days,fancy,thursday.svg

<svg width="48" height="48" viewBox="0 0 48 48" fill="none" xmlns="http://www.w3.org/2000/svg">
<rect opacity="0.2" x="4" y="6" width="40" height="40" rx="4" fill="black"/>
<path d="M9.34837 24.5881H14.6921V39H18.3398V24.5881H23.6836V21.5455H9.34837V24.5881ZM29.6069 31.4318C29.6154 29.7443 30.6467 28.7557 32.1296 28.7557C33.604 28.7557 34.4734 29.7017 34.4648 31.3125V39H38.0955V30.6648C38.104 27.5966 36.2972 25.7386 33.57 25.7386C31.5842 25.7386 30.2546 26.6761 29.658 28.2188H29.5046V21.5455H25.9762V39H29.6069V31.4318Z" fill="black"/>
<g opacity="0.4">
<path d="M10 4C10 2.89543 10.8954 2 12 2C13.1046 2 14 2.89543 14 4V8C14 9.10457 13.1046 10 12 10C10.8954 10 10 9.10457 10 8V4Z" fill="black"/>
<path d="M34 4C34 2.89543 34.8954 2 36 2C37.1046 2 38 2.89543 38 4V8C38 9.10457 37.1046 10 36 10C34.8954 10 34 9.10457 34 8V4Z" fill="black"/>
</g>
<path fill-rule="evenodd" clip-rule="evenodd" d="M10 6.00869C7.52043 6.04456 6.11466 6.22849 5.17157 7.17157C4 8.34315 4 10.2288 4 14V16H44V14C44 10.2288 44 8.34315 42.8284 7.17157C41.8853 6.22849 40.4796 6.04456 38 6.00869V8C38 9.10457 37.1046 10 36 10C34.8954 10 34 9.10457 34 8V6H14V8C14 9.10457 13.1046 10 12 10C10.8954 10 10 9.10457 10 8V6.00869Z" fill="black"/>
</svg>

<svg xmlns="http://www.w3.org/2000/svg" width="48" height="48" fill="none" viewBox="0 0 48 48">
  <rect width="40" height="40" x="4" y="6" fill="#000" opacity=".2" rx="4"/>
  <path fill="#000" d="M9.348 24.588h5.344V39h3.648V24.588h5.344v-3.043H9.348v3.043zm20.259 6.844c.008-1.688 1.04-2.676 2.523-2.676 1.474 0 2.343.946 2.335 2.556V39h3.63v-8.335c.009-3.068-1.798-4.926-4.525-4.926-1.986 0-3.315.937-3.912 2.48h-.153v-6.674h-3.529V39h3.63v-7.568z"/>
  <g opacity=".4">
    <path fill="#000" d="M10 4a2 2 0 114 0v4a2 2 0 11-4 0V4zM34 4a2 2 0 114 0v4a2 2 0 11-4 0V4z"/>
  </g>
  <path fill="#000" fill-rule="evenodd" d="M10 6.009c-2.48.036-3.885.22-4.828 1.163C4 8.343 4 10.229 4 14v2h40v-2c0-3.771 0-5.657-1.172-6.828-.943-.944-2.348-1.127-4.828-1.163V8a2 2 0 11-4 0V6H14v2a2 2 0 11-4 0V6.009z" clip-rule="evenodd"/>
</svg>
